src/icons/twtxt.svg

<svg version="1.1" viewBox="0 0 263.1 69"
  xmlns="http://www.w3.org/2000/svg">
  <title>Twtxt logo</title>
  <g transform="translate(-317.9 -315)">
    <path d="m341.3 315v17.2h12.2 19.7l9.2 36.3h1.3l10.9-36.3h15.8l10.9 36.3h1.4l9-36.3h18.6 6.8l8.4-17.2h9.8v17.2h14.6 19.4l7.3 20.3h1.2l6.4-20.3h19.1 8.6l8.4-17.2h9.8v17.2h10.9v11.8h-10.9v28.3h10.9v11.7h-17.6q-5.8 0-8.65-2.6t-2.85-9.3v-28.1h-13.013l-5.087 13.6 11.2 26.4h-20.9l-7.3-20.5h-1.2l-8.4 20.5h-19.6l12.4-26.4-5.408-13.6h-19.292v28.3h10.9v11.7h-17.6q-5.8 0-8.65-2.6t-2.85-9.3v-28.1h-10.65l-13.05 40h-21.3l-9.7-31.9h-1l-9.8 31.9h-21.2l-13.05-40h-16.05v28.3h10.9v11.7h-17.6q-5.8 0-8.65-2.6t-2.85-9.3v-28.1h-5.2v-11.8h5.2l8.4-17.2h9.8z"/>
  </g>
</svg>

<svg role="img" viewBox="0 0 8 8"
   xmlns="http://www.w3.org/2000/svg">
  <title>RSS Feed icon</title>
  <rect width="8" height="8" rx="1.5" fill="#6610f2" />
  <g transform="matrix(0.0275,0,0,0.0275,-8.4514499,-5.5585101)">
    <path d="m 341.3,315 v 17.2 h 12.2 19.7 l 9.2,36.3 h 1.3 l 10.9,-36.3 h 15.8 l 10.9,36.3 h 1.4 l 9,-36.3 h 18.6 6.8 l 8.4,-17.2 h 9.8 v 17.2 h 14.6 19.4 l 7.3,20.3 h 1.2 l 6.4,-20.3 h 19.1 8.6 l 8.4,-17.2 h 9.8 v 17.2 H 581 V 344 h -10.9 v 28.3 H 581 V 384 h -17.6 q -5.8,0 -8.65,-2.6 -2.85,-2.6 -2.85,-9.3 V 344 H 538.887 L 533.8,357.6 545,384 h -20.9 l -7.3,-20.5 h -1.2 L 507.2,384 H 487.6 L 500,357.6 494.592,344 H 475.3 v 28.3 h 10.9 V 384 h -17.6 q -5.8,0 -8.65,-2.6 -2.85,-2.6 -2.85,-9.3 V 344 h -10.65 l -13.05,40 h -21.3 l -9.7,-31.9 h -1 L 391.6,384 H 370.4 L 357.35,344 H 341.3 v 28.3 h 10.9 V 384 h -17.6 q -5.8,0 -8.65,-2.6 -2.85,-2.6 -2.85,-9.3 V 344 h -5.2 v -11.8 h 5.2 l 8.4,-17.2 z" fill="#ffc107"/>
  </g>
</svg>
